flaticon/household/couch-6.svg

<svg xmlns="http://www.w3.org/2000/svg" width="32" height="32" viewBox="0 0 24 24">
    <path d="M12 7.601562C12.222656 7.601562 12.398438 7.421875 12.398438 7.199219L12.398438 6.800781C12.398438 6.578125 12.222656 6.398438 12 6.398438 11.777344 6.398438 11.601562 6.578125 11.601562 6.800781L11.601562 7.199219C11.601562 7.421875 11.777344 7.601562 12 7.601562zM12 10.800781C12.222656 10.800781 12.398438 10.621094 12.398438 10.398438L12.398438 10C12.398438 9.777344 12.222656 9.601562 12 9.601562 11.777344 9.601562 11.601562 9.777344 11.601562 10L11.601562 10.398438C11.601562 10.621094 11.777344 10.800781 12 10.800781zM12 9.199219C12.222656 9.199219 12.398438 9.019531 12.398438 8.800781L12.398438 8.398438C12.398438 8.179688 12.222656 8 12 8 11.777344 8 11.601562 8.179688 11.601562 8.398438L11.601562 8.800781C11.601562 9.019531 11.777344 9.199219 12 9.199219zM4 14.800781C4 15.019531 3.820312 15.199219 3.601562 15.199219 3.378906 15.199219 3.199219 15.019531 3.199219 14.800781 3.199219 14.578125 3.378906 14.398438 3.601562 14.398438 3.820312 14.398438 4 14.578125 4 14.800781zM4 17.199219C4 17.421875 3.820312 17.601562 3.601562 17.601562 3.378906 17.601562 3.199219 17.421875 3.199219 17.199219 3.199219 16.980469 3.378906 16.800781 3.601562 16.800781 3.820312 16.800781 4 16.980469 4 17.199219zM5.199219 16C5.199219 16.222656 5.019531 16.398438 4.800781 16.398438 4.578125 16.398438 4.398438 16.222656 4.398438 16 4.398438 15.777344 4.578125 15.601562 4.800781 15.601562 5.019531 15.601562 5.199219 15.777344 5.199219 16zM7.601562 16C7.601562 16.222656 7.421875 16.398438 7.199219 16.398438 6.980469 16.398438 6.800781 16.222656 6.800781 16 6.800781 15.777344 6.980469 15.601562 7.199219 15.601562 7.421875 15.601562 7.601562 15.777344 7.601562 16zM6.398438 14.800781C6.398438 15.019531 6.222656 15.199219 6 15.199219 5.777344 15.199219 5.601562 15.019531 5.601562 14.800781 5.601562 14.578125 5.777344 14.398438 6 14.398438 6.222656 14.398438 6.398438 14.578125 6.398438 14.800781zM8.800781 14.800781C8.800781 15.019531 8.621094 15.199219 8.398438 15.199219 8.179688 15.199219 8 15.019531 8 14.800781 8 14.578125 8.179688 14.398438 8.398438 14.398438 8.621094 14.398438 8.800781 14.578125 8.800781 14.800781zM6.398438 17.199219C6.398438 17.421875 6.222656 17.601562 6 17.601562 5.777344 17.601562 5.601562 17.421875 5.601562 17.199219 5.601562 16.980469 5.777344 16.800781 6 16.800781 6.222656 16.800781 6.398438 16.980469 6.398438 17.199219zM8.800781 17.199219C8.800781 17.421875 8.621094 17.601562 8.398438 17.601562 8.179688 17.601562 8 17.421875 8 17.199219 8 16.980469 8.179688 16.800781 8.398438 16.800781 8.621094 16.800781 8.800781 16.980469 8.800781 17.199219zM10 16C10 16.222656 9.820312 16.398438 9.601562 16.398438 9.378906 16.398438 9.199219 16.222656 9.199219 16 9.199219 15.777344 9.378906 15.601562 9.601562 15.601562 9.820312 15.601562 10 15.777344 10 16zM12.398438 16C12.398438 16.222656 12.222656 16.398438 12 16.398438 11.777344 16.398438 11.601562 16.222656 11.601562 16 11.601562 15.777344 11.777344 15.601562 12 15.601562 12.222656 15.601562 12.398438 15.777344 12.398438 16zM11.199219 14.800781C11.199219 15.019531 11.019531 15.199219 10.800781 15.199219 10.578125 15.199219 10.398438 15.019531 10.398438 14.800781 10.398438 14.578125 10.578125 14.398438 10.800781 14.398438 11.019531 14.398438 11.199219 14.578125 11.199219 14.800781zM13.601562 14.800781C13.601562 15.019531 13.421875 15.199219 13.199219 15.199219 12.980469 15.199219 12.800781 15.019531 12.800781 14.800781 12.800781 14.578125 12.980469 14.398438 13.199219 14.398438 13.421875 14.398438 13.601562 14.578125 13.601562 14.800781zM11.199219 17.199219C11.199219 17.421875 11.019531 17.601562 10.800781 17.601562 10.578125 17.601562 10.398438 17.421875 10.398438 17.199219 10.398438 16.980469 10.578125 16.800781 10.800781 16.800781 11.019531 16.800781 11.199219 16.980469 11.199219 17.199219zM13.601562 17.199219C13.601562 17.421875 13.421875 17.601562 13.199219 17.601562 12.980469 17.601562 12.800781 17.421875 12.800781 17.199219 12.800781 16.980469 12.980469 16.800781 13.199219 16.800781 13.421875 16.800781 13.601562 16.980469 13.601562 17.199219zM14.800781 16C14.800781 16.222656 14.621094 16.398438 14.398438 16.398438 14.179688 16.398438 14 16.222656 14 16 14 15.777344 14.179688 15.601562 14.398438 15.601562 14.621094 15.601562 14.800781 15.777344 14.800781 16zM17.199219 16C17.199219 16.222656 17.019531 16.398438 16.800781 16.398438 16.578125 16.398438 16.398438 16.222656 16.398438 16 16.398438 15.777344 16.578125 15.601562 16.800781 15.601562 17.019531 15.601562 17.199219 15.777344 17.199219 16zM16 14.800781C16 15.019531 15.820312 15.199219 15.601562 15.199219 15.378906 15.199219 15.199219 15.019531 15.199219 14.800781 15.199219 14.578125 15.378906 14.398438 15.601562 14.398438 15.820312 14.398438 16 14.578125 16 14.800781zM18.398438 14.800781C18.398438 15.019531 18.222656 15.199219 18 15.199219 17.777344 15.199219 17.601562 15.019531 17.601562 14.800781 17.601562 14.578125 17.777344 14.398438 18 14.398438 18.222656 14.398438 18.398438 14.578125 18.398438 14.800781zM16 17.199219C16 17.421875 15.820312 17.601562 15.601562 17.601562 15.378906 17.601562 15.199219 17.421875 15.199219 17.199219 15.199219 16.980469 15.378906 16.800781 15.601562 16.800781 15.820312 16.800781 16 16.980469 16 17.199219zM18.398438 17.199219C18.398438 17.421875 18.222656 17.601562 18 17.601562 17.777344 17.601562 17.601562 17.421875 17.601562 17.199219 17.601562 16.980469 17.777344 16.800781 18 16.800781 18.222656 16.800781 18.398438 16.980469 18.398438 17.199219zM19.601562 16C19.601562 16.222656 19.421875 16.398438 19.199219 16.398438 18.980469 16.398438 18.800781 16.222656 18.800781 16 18.800781 15.777344 18.980469 15.601562 19.199219 15.601562 19.421875 15.601562 19.601562 15.777344 19.601562 16zM20.800781 14.800781C20.800781 15.019531 20.621094 15.199219 20.398438 15.199219 20.179688 15.199219 20 15.019531 20 14.800781 20 14.578125 20.179688 14.398438 20.398438 14.398438 20.621094 14.398438 20.800781 14.578125 20.800781 14.800781zM20.800781 17.199219C20.800781 17.421875 20.621094 17.601562 20.398438 17.601562 20.179688 17.601562 20 17.421875 20 17.199219 20 16.980469 20.179688 16.800781 20.398438 16.800781 20.621094 16.800781 20.800781 16.980469 20.800781 17.199219zM20.800781 17.199219"/>
    <path d="M 24 10.398438 C 24 9.808594 23.675781 9.300781 23.199219 9.023438 L 23.199219 7.96875 C 23.199219 6 21.597656 4.398438 19.632812 4.398438 L 13.929688 4.398438 C 13.222656 4.398438 12.546875 4.632812 12 5.066406 C 11.453125 4.632812 10.777344 4.398438 10.070312 4.398438 L 4.367188 4.398438 C 2.402344 4.398438 0.800781 6 0.800781 7.96875 L 0.800781 9.023438 C 0.324219 9.300781 0 9.808594 0 10.398438 L 0 18.398438 L 0.398438 18.398438 L 0.398438 19.601562 L 2.800781 19.601562 L 2.800781 18.398438 L 21.199219 18.398438 L 21.199219 19.601562 L 23.601562 19.601562 L 23.601562 18.398438 L 24 18.398438 Z M 3.199219 12 L 10.070312 12 C 10.691406 12 11.277344 12.242188 11.71875 12.683594 L 12 12.964844 L 12.28125 12.683594 C 12.722656 12.242188 13.308594 12 13.929688 12 L 20.800781 12 L 20.800781 13.199219 L 3.199219 13.199219 Z M 21.601562 14 L 21.601562 10.519531 C 21.601562 10.152344 21.792969 9.824219 22.089844 9.675781 C 22.171875 9.636719 22.253906 9.617188 22.332031 9.605469 C 22.347656 9.605469 22.367188 9.601562 22.382812 9.601562 C 22.414062 9.601562 22.441406 9.605469 22.46875 9.609375 C 22.488281 9.609375 22.507812 9.609375 22.523438 9.613281 C 22.570312 9.621094 22.617188 9.632812 22.664062 9.652344 L 22.730469 9.671875 C 23.007812 9.796875 23.199219 10.078125 23.199219 10.398438 L 23.199219 17.601562 L 21.601562 17.601562 Z M 1.601562 7.96875 C 1.601562 6.441406 2.84375 5.199219 4.367188 5.199219 L 10.070312 5.199219 C 10.691406 5.199219 11.277344 5.441406 11.71875 5.882812 L 12 6.164062 L 12.28125 5.882812 C 12.722656 5.441406 13.308594 5.199219 13.929688 5.199219 L 19.632812 5.199219 C 21.15625 5.199219 22.398438 6.441406 22.398438 7.96875 L 22.398438 8.800781 C 21.519531 8.800781 20.800781 9.519531 20.800781 10.398438 L 20.800781 11.199219 L 13.929688 11.199219 C 13.222656 11.199219 12.546875 11.433594 12 11.867188 C 11.453125 11.433594 10.777344 11.199219 10.070312 11.199219 L 3.199219 11.199219 L 3.199219 10.398438 C 3.199219 9.519531 2.480469 8.800781 1.601562 8.800781 Z M 0.800781 10.398438 C 0.800781 10.078125 0.992188 9.796875 1.269531 9.671875 L 1.335938 9.652344 C 1.382812 9.632812 1.429688 9.621094 1.476562 9.613281 C 1.492188 9.609375 1.511719 9.609375 1.53125 9.605469 C 1.558594 9.605469 1.585938 9.601562 1.613281 9.601562 C 1.632812 9.601562 1.648438 9.605469 1.667969 9.605469 C 1.746094 9.617188 1.828125 9.636719 1.90625 9.675781 C 2.207031 9.824219 2.398438 10.152344 2.398438 10.519531 L 2.398438 17.601562 L 0.800781 17.601562 Z M 2 18.800781 L 1.199219 18.800781 L 1.199219 18.398438 L 2 18.398438 Z M 20.800781 14.800781 L 20.800781 17.601562 L 3.199219 17.601562 L 3.199219 14 L 20.800781 14 Z M 22.800781 18.800781 L 22 18.800781 L 22 18.398438 L 22.800781 18.398438 Z M 22.800781 18.800781"/>
</svg>

<svg xmlns="http://www.w3.org/2000/svg" width="32" height="32" viewBox="0 0 24 24">
    <path d="M12 7.602c.223 0 .398-.18.398-.403v-.398a.398.398 0 1 0-.796 0v.398c0 .223.175.403.398.403zm0 0M12 10.8c.223 0 .398-.179.398-.402V10A.395.395 0 0 0 12 9.602a.395.395 0 0 0-.398.398v.398c0 .223.175.403.398.403zm0 0M12 9.2c.223 0 .398-.18.398-.4v-.402a.398.398 0 1 0-.796 0v.403c0 .219.175.398.398.398zm0 0M4 14.8a.4.4 0 1 1-.8-.003.4.4 0 0 1 .8.004zm0 0M4 17.2a.401.401 0 1 1-.802.002.401.401 0 0 1 .802-.003zm0 0M5.2 16c0 .223-.18.398-.4.398a.398.398 0 1 1 0-.796c.22 0 .4.175.4.398zm0 0M7.602 16c0 .223-.18.398-.403.398a.398.398 0 1 1 0-.796c.223 0 .403.175.403.398zm0 0M6.398 14.8a.398.398 0 1 1-.796 0 .398.398 0 1 1 .796 0zm0 0M8.8 14.8A.401.401 0 1 1 8 14.797a.401.401 0 0 1 .802.005zm0 0M6.398 17.2a.398.398 0 1 1-.796 0 .398.398 0 1 1 .796 0zm0 0M8.8 17.2a.401.401 0 1 1 0 0zm0 0M10 16c0 .223-.18.398-.398.398a.398.398 0 1 1 0-.796c.218 0 .398.175.398.398zm0 0M12.398 16a.395.395 0 0 1-.398.398.395.395 0 0 1-.398-.398c0-.223.175-.398.398-.398.223 0 .398.175.398.398zm0 0M11.2 14.8a.4.4 0 1 1-.801-.003.4.4 0 0 1 .8.004zm0 0M13.602 14.8a.401.401 0 1 1-.802-.004.401.401 0 0 1 .802.005zm0 0M11.2 17.2a.401.401 0 1 1-.803.002.401.401 0 0 1 .802-.003zm0 0M13.602 17.2a.401.401 0 1 1 0 0zm0 0M14.8 16c0 .223-.179.398-.402.398a.398.398 0 1 1 0-.796c.223 0 .403.175.403.398zm0 0M17.2 16c0 .223-.18.398-.4.398a.398.398 0 1 1 0-.796c.22 0 .4.175.4.398zm0 0M16 14.8a.4.4 0 1 1-.8-.003.4.4 0 0 1 .8.004zm0 0M18.398 14.8a.398.398 0 1 1-.796 0 .398.398 0 1 1 .796 0zm0 0M16 17.2a.401.401 0 1 1-.802.002.401.401 0 0 1 .802-.003zm0 0M18.398 17.2a.398.398 0 1 1-.796 0 .398.398 0 1 1 .796 0zm0 0M19.602 16c0 .223-.18.398-.403.398a.398.398 0 1 1 0-.796c.223 0 .403.175.403.398zm0 0M20.8 14.8a.401.401 0 1 1-.801-.004.401.401 0 0 1 .802.005zm0 0M20.8 17.2a.401.401 0 1 1 0 0zm0 0"/>
    <path d="M24 10.398a1.59 1.59 0 0 0-.8-1.375V7.97a3.573 3.573 0 0 0-3.567-3.57H13.93c-.707 0-1.383.234-1.93.667a3.094 3.094 0 0 0-1.93-.668H4.367a3.573 3.573 0 0 0-3.566 3.57v1.055A1.59 1.59 0 0 0 0 10.398v8h.398v1.204h2.403v-1.204h18.398v1.204h2.403v-1.204H24zM3.2 12h6.87c.621 0 1.207.242 1.649.684l.281.28.281-.28A2.317 2.317 0 0 1 13.93 12h6.87v1.2H3.2zm18.402 2v-3.48c0-.368.191-.696.488-.844a.846.846 0 0 1 .242-.07c.016 0 .035-.004.05-.004.032 0 .06.003.087.007a.63.63 0 0 1 .195.043l.066.02a.799.799 0 0 1 .47.726v7.204h-1.598zm-20-6.031a2.772 2.772 0 0 1 2.765-2.77h5.703c.621 0 1.207.242 1.649.684l.281.281.281-.281a2.317 2.317 0 0 1 1.649-.684h5.703a2.772 2.772 0 0 1 2.765 2.77V8.8c-.878 0-1.597.719-1.597 1.597v.801H13.93c-.707 0-1.383.235-1.93.668a3.094 3.094 0 0 0-1.93-.668H3.2v-.8c0-.88-.72-1.598-1.598-1.598zM.8 10.399c0-.32.191-.602.469-.727l.066-.02a.63.63 0 0 1 .14-.039c.016-.004.036-.004.055-.008.028 0 .055-.003.082-.003.02 0 .035.003.055.003.078.012.16.032.238.07.301.15.492.477.492.845v7.082H.801zM2 18.8h-.8v-.403H2zm18.8-4v2.8H3.2V14h17.6zm2 4H22v-.403h.8zm0 0"/>
</svg>
